X:1
T:Glad Tidings, My Brother, for You
T:Glad Tidings, My Brother, for You
T:George Coles Stebbins
T:Cora C. Russell, 1917
T:Public Domain Courtesy of the Cyber Hymnal™
T:Public Domain Courtesy of the Cyber Hymnal™
C:George Coles Stebbins
Z:Public Domain
Z:Courtesy of the Cyber Hymnal™
%%score ( 1 2 ) ( 3 4 )
L:1/8
Q:1/4=155
M:6/4
K:G
V:1 treble 
V:2 treble 
V:3 bass 
V:4 bass 
V:1
 [DG]2 | [GB]2 [GB]2 [GB]2 [GB]2 [DA]2 [DG]2 | [Gd]2 [Fd]2 [Ad]2 [Gd]4 [Gd]2 | [Gd]2 [GB]2 [DA]2 | %4
w: 1.~Glad|tid- ings, my bro- ther, glad|tid- ings I bring Of|man- sions pre-|
w: 2.~Glad|tid- ings, my bro- ther, glad|tid- ings I bring, A|mes- sage so|
w: 3.~Glad|tid- ings, my bro- ther, glad|tid- ings I bring, God’s|prom- is- es|
 [EG]2 [EF]2 [EG]2 | [FA]6- [FA]4 [DG]2 | [GB]2 [GB]2 [GB]2 [GB]2 [DA]2 [DG]2 | %7
w: pared o- ver|there; * By|One who knows well All thy|
w: ten- der and|true; * Your|Fa- ther is call- ing And|
w: ne- ver can|fail; * They’re|sealed by the blood Of His|
 [Gd]2 [Fd]2 [Ad]2 [Gd]4 [Ge]2 | [Gd]2 [DB]2 [DG]2 [DA]2 D2 [DA]2 | [DG]6- [DG]4 || %10
w: heart’s deep de- sire, And|lists to thy heart’s faint- est|prayer. *|
w: bids you re- turn, His|heart is now yearn- ing for|you. *|
w: cru- ci- fied Son, The|blood that will e- ver a-|vail. *|
"^Refrain" [DB]2 | [Ec]2 [Ge]2 [Ge]2 [Ge] [Ec]3 [Ge]2 | d6- [Gd]4 [Gd]2 | %13
w: |||
w: Glad|tid- ings, my bro- ther, for|you, Your Fa-|
w: |||
 [Gd]2 [GB]2 [DA]2 [EG]2 [EF]2 [EG]2 | A6- [FA]4 [DG]2 | [GB]2 [GB]2 [GB]2 [GB]2 [DA]2 [DG]2 | %16
w: |||
w: ther is call- ing to- day;|A place He’s|* pre- pared, And a glad|
w: |||
 [Gd]2 [Fd]2 [Gd]2 [Gd]4 [Ge]2 | [Gd]2 [DB]2 [B,G]2 [CA]2 [CD]2 [CA]2 | [B,G]6- [B,G]4 [B,D]2 | %19
w: |||
w: wel- come home, O come|and no long- er de- lay!|Your * Fa-|
w: |||
 [B,D]2 [B,D]2 [B,D]2 [B,D]2 [B,D]2 [B,D]2 | [CE]6- [CE]4 [EG]2 | %21
w: ||
w: ther is call- ing you home,|Is * ten-|
w: ||
 [CF]3 [CF] [CF]2 [CF]2 [CF]2 [CF]2 | [B,G]6- [B,G]4 [DB]2 | [Ec]2 [Ec]2 [Ec]2 [DB]4 [GB]2 | %24
w: |||
w: der- ly call- ing you home;|Then * turn|not a- way, But come|
w: |||
 [FA]2 [FA]2 [FA]2 [EG]4 [CE]2 | [B,D]3 [B,D] [B,D]2 [CD]2 [CE]2 [CF]2 | [B,G]6- [B,G]4 |] %27
w: |||
w: while you may, O come|to your Fa- ther and home!||
w: |||
V:2
 x2 | x12 | x12 | x6 | x6 | x12 | x12 | x12 | x8 D2 x2 | x10 || x2 | x12 | (G F3 A2) x6 | x12 | %14
 F4 G2 x6 | x12 | x12 | x12 | x12 | x12 | x12 | x12 | x12 | x12 | x12 | x12 | x10 |] %27
V:3
 [G,B,]2 | [G,D]2 [G,D]2 [G,D]2 [G,D]2 [G,C]2 [G,B,]2 | [D,B,]2 [D,A,]2 [D,C]2 [G,B,]4 [G,B,]2 | %3
 [G,B,]2 [G,D]2 [F,D]2 | [E,^C]2 [A,,C]2 [A,,C]2 | [D,D]6- [D,D]4 [G,B,]2 | %6
 [G,D]2 [G,D]2 [G,D]2 [G,D]2 [G,C]2 [G,B,]2 | [D,B,]2 [D,A,]2 [D,C]2 [G,B,]4 [C,C]2 | %8
 [D,B,]2 [D,G,]2 [D,B,]2 [D,C]2 [F,C]2 [D,C]2 | [G,,G,]6- [G,,G,]4 || G,2 | %11
 [C,G,]2 [C,C]2 [C,C]2 [C,C] [C,G,]3 [C,C]2 | ([G,B,] [D,A,]3 [D,C]2) [G,B,]4 [G,B,]2 | %13
 [G,B,]2 [G,D]2 [F,D]2 [E,^C]2 [A,,C]2 [A,,C]2 | (D4 E2 [D,D]4) [G,B,]2 | %15
 [G,D]2 [G,D]2 [G,D]2 [G,D]2 [G,C]2 [G,B,]2 | [D,B,]2 [D,A,]2 [D,C]2 [G,B,]4 [C,C]2 | %17
 [D,B,]2 [D,G,]2 [D,G,]2 [D,F,]2 [D,F,]2 [D,F,]2 | [G,,G,]6- [G,,G,]4 [G,,G,]2 | %19
 [G,,G,]2 [G,,G,]2 [G,,G,]2 [G,,G,]2 [G,,G,]2 [G,,G,]2 | [C,G,]2 [C,G,]2 [C,G,]2 [C,G,]4 [C,C]2 | %21
 [D,A,]3 [D,A,] [D,A,]2 [D,A,]2 [D,A,]2 [D,A,]2 | [G,,G,]6- [G,,G,]4 [G,,G,]2 | %23
 [C,G,]2 [C,G,]2 [E,G,]2 G,4 [G,D]2 | [D,C]2 [D,C]2 [D,C]2 [E,B,]4 [A,,G,]2 | %25
 [D,G,]3 [D,G,] [D,G,]2 [D,F,]2 [D,G,]2 [D,A,]2 | [G,,G,]6- [G,,G,]4 |] %27
V:4
 x2 | x12 | x12 | x6 | x6 | x12 | x12 | x12 | x12 | x10 || G,2 | x12 | x12 | x12 | D,6- x6 | x12 | %16
 x12 | x12 | x12 | x12 | x12 | x12 | x12 | x6 G,4 x2 | x12 | x12 | x10 |] %27

